X:125
T:My Love Is Like a Red Red Rose
R:march
S:From a tape of Con Cassidy of unknown provenance
N:Sounds as much like a polka as a march
Z:Rough transcription by Larry Sanger
M:2/4
L:1/8
Q:120
K:G
|:G2 Bd|g>a gd|e>d eg|a>g ab|G2 Bd|g>a gd|ee/e/ fd|1 gd BA:|2 g2 gd||
|:gb ag|eg de/f/|gb db|a2 ad|gb ag|eg dg|ee/e/ fd|1 g2 gd:|2 g2 dB||
